assets/icons/RSS.svg

<svg xmlns="http://www.w3.org/2000/svg" width="48" height="48" fill="none" xmlns:v="https://vecta.io/nano"><path d="M44 4V2H4v2H2v40h2v2h40v-2h2V4h-2zM32 36v-6h-2v-4h-2v-2h-2v-2h-2v-2h-2v-2h-4v-2h-4v-2H8V8h6v2h4v2h4v2h4v2h2v2h2v2h2v2h2v4h2v4h2v4h2v6h-6v-4h-2zm-10 0v-4h-2v-2h-2v-2h-2v-2h-4v-2H8v-6h4v2h4v2h4v2h2v2h2v2h2v4h2v4h2v4h-6v-4h-2zM8 38v-6h2v-2h6v2h2v6h-2v2h-6v-2H8z" fill="#000"/></svg>

<svg width="48" height="48" viewBox="0 0 48 48" fill="none" xmlns="http://www.w3.org/2000/svg">
<path d="M44 4V2H4V4H2V44H4V46H44V44H46V4H44ZM32 36V30H30V26H28V24H26V22H24V20H22V18H18V16H14V14H8V8H14V10H18V12H22V14H26V16H28V18H30V20H32V22H34V26H36V30H38V34H40V40H34V36H32ZM22 36V32H20V30H18V28H16V26H12V24H8V18H12V20H16V22H20V24H22V26H24V28H26V32H28V36H30V40H24V36H22ZM8 38V32H10V30H16V32H18V38H16V40H10V38H8Z" fill="black"/>
</svg>
